X: 3180
T: Bee Frame, The
R: jig
M: 6/8
K: Amajor
|:cAA BAG|FGA ~E3|EFG ABc|~d3 Bed|
cde dcB|ABc ~F3|EFG AEC|~B,3 A,2 B:|
|:c2 e e^de|fed e/f/ef|edc BAB|cBB B2 f|
[1 edc BAB|cBA ~F3|EFG AEC|~B,3 A,2 B:|
[2 edc Baf|ecA F3|EFG AEC|~B,3 A,3||

